build/images/icons/twitter.svg

<svg xmlns="http://www.w3.org/2000/svg" width="16" height="14"><path d="M10.883.516c1.271-.023 1.948.441 2.594 1.029.549-.047 1.262-.353 1.682-.566l.409-.224c-.24.649-.566 1.156-1.066 1.541-.11.086-.221.201-.36.256v.007c.712-.007 1.3-.328 1.858-.502v.008c-.293.466-.69.938-1.113 1.277l-.513.407c.01.755-.011 1.474-.152 2.108-.82 3.685-2.992 6.186-6.43 7.257-1.235.385-3.23.544-4.645.192a11.997 11.997 0 01-1.93-.631c-.33-.144-.636-.3-.929-.479A44.503 44.503 0 010 12.02c.319.01.692.098 1.049.04.323-.052.639-.038.937-.103.742-.163 1.402-.378 1.97-.711.275-.161.693-.35.889-.582a2.792 2.792 0 01-.977-.176c-1.062-.375-1.68-1.065-2.082-2.1.322.035 1.248.119 1.465-.064-.405-.022-.794-.257-1.073-.431C1.324 7.359.627 6.462.633 5.082l.336.16c.214.091.433.139.689.192.108.022.324.086.448.039H2.09c-.165-.191-.435-.32-.601-.526C.941 4.265.428 3.217.753 1.969c.082-.317.213-.596.352-.854a.12.12 0 01.016.008c.064.133.206.231.296.343.28.347.626.659.977.934 1.199.937 2.279 1.514 4.012 1.94.44.108.949.19 1.474.192-.148-.43-.1-1.126.016-1.541.292-1.046.927-1.8 1.858-2.204.222-.096.469-.167.728-.223l.401-.048z"/></svg>

<svg 
 xmlns="http://www.w3.org/2000/svg"
 xmlns:xlink="http://www.w3.org/1999/xlink"
 width="16px" height="14px">
<path 
 d="M10.883,0.516 C12.154,0.493 12.831,0.957 13.477,1.545 C14.026,1.498 14.739,1.192 15.159,0.979 C15.295,0.904 15.431,0.830 15.568,0.755 C15.328,1.404 15.002,1.911 14.502,2.296 C14.392,2.382 14.281,2.497 14.142,2.552 C14.142,2.555 14.142,2.557 14.142,2.559 C14.854,2.552 15.442,2.231 16.000,2.057 C16.000,2.059 16.000,2.062 16.000,2.065 C15.707,2.531 15.310,3.003 14.887,3.342 C14.716,3.478 14.545,3.613 14.374,3.749 C14.384,4.504 14.363,5.223 14.222,5.857 C13.402,9.542 11.230,12.043 7.792,13.114 C6.557,13.499 4.562,13.658 3.147,13.306 C2.446,13.132 1.812,12.935 1.217,12.675 C0.887,12.531 0.581,12.375 0.288,12.196 C0.192,12.138 0.096,12.079 -0.000,12.020 C0.319,12.030 0.692,12.118 1.049,12.060 C1.372,12.008 1.688,12.022 1.986,11.957 C2.728,11.794 3.388,11.579 3.956,11.246 C4.231,11.085 4.649,10.896 4.845,10.664 C4.476,10.670 4.142,10.585 3.868,10.488 C2.806,10.113 2.188,9.423 1.786,8.388 C2.108,8.423 3.034,8.507 3.251,8.324 C2.846,8.302 2.457,8.067 2.178,7.893 C1.324,7.359 0.627,6.462 0.633,5.082 C0.745,5.135 0.857,5.189 0.969,5.242 C1.183,5.333 1.402,5.381 1.658,5.434 C1.766,5.456 1.982,5.520 2.106,5.473 C2.101,5.473 2.095,5.473 2.090,5.473 C1.925,5.282 1.655,5.153 1.489,4.947 C0.941,4.265 0.428,3.217 0.753,1.969 C0.835,1.652 0.966,1.373 1.105,1.115 C1.110,1.117 1.116,1.120 1.121,1.123 C1.185,1.256 1.327,1.354 1.417,1.466 C1.697,1.813 2.043,2.125 2.394,2.400 C3.593,3.337 4.673,3.914 6.406,4.340 C6.846,4.448 7.355,4.530 7.880,4.532 C7.732,4.102 7.780,3.406 7.896,2.991 C8.188,1.945 8.823,1.191 9.754,0.787 C9.976,0.691 10.223,0.620 10.482,0.564 C10.616,0.548 10.749,0.532 10.883,0.516 Z"/>
</svg>
